X: 1
T: Save The Children
T: 8x32S 3C (RSCDS Bk 51)
P: Kathleen Bartlett of Go Home Bay
C: Don Bartlett
C: arr. T. Traub 8-12-2017
M: 4/4
L: 1/8
K: F
C|"F"A2 F>c A<FF>A|"Gm"B<G"G7"G>f "C"e<cc>e|"F"f2 c>f "Bb"d>f "Gm"Bd|1 "C"c>AB>G "F"A<F (3FcB :|2 "C"c>AB>G "F"A<F F2||
"F"f<c c2 f<c c2|"F"f>a"G"g>f "C"e<c c2|"Gm"g<d d2 g<d d2|"C"e>fg>a "Gm"g/f/e/d/ "C"cB|
"F"A>fc>f "Bb"d<B B|"G"=B>gd>g "C"e<cc>e|"F"f2 b/a/g/f/ "Bb"d>f"Gm"B>d|"F"c>A"C"B<G "F"A<F F |]
